X:1
T:College Station, 76.76 D
T:College Station, 76.76 D
T:William Augustine Ogden, 1899
T:Public Domain Courtesy of the Cyber Hymnal™
C:William Augustine Ogden, 1899
Z:Public Domain
Z:Courtesy of the Cyber Hymnal™
%%score ( 1 2 ) ( 3 4 )
L:1/8
Q:1/4=112
M:4/4
K:Bb
V:1 treble 
V:2 treble 
V:3 bass 
V:4 bass 
V:1
 F2 | B3 F D2 [DB]2 | [EG]4 [DF]2 [DF]2 | [DB]2 [DB]2 [Fc]2 [Fd]2 | [Fc]6 [Fc]2 | %5
 [Fd]3 [Ec] [DB]2 [FB]2 | [GB]4 [EG]2 [GB]2 | [FB]2 [FB]2 [Fd]2 [Ec]2 | [DB]6 [DB]2 | %9
 [Ec]3 [DB] [CA]2 [Fc]2 | [Fd]4 [DB]2 (cd) | [Fe]2 [Fe]2 [Fd]2 [Fd]2 | [Fc]6 [Fc]2 | %13
 [Fd]3 [Ec] [DB]2 [DF]2 | [EG]4 [GB]2 [_Gc]2 | [Fd]2 [FB]2 [EB]2 [EA]2 | [DB]6 |] %17
V:2
 F2 | B3 F D2 x2 | x8 | x8 | x8 | x8 | x8 | x8 | x8 | x8 | x6 F2 | x8 | x8 | x8 | x8 | x8 | x6 |] %17
V:3
 F,2 | B,3 F, D,2 [B,,B,]2 | [B,,B,]4 [B,,B,]2 [B,,B,]2 | [G,B,]2 [G,B,]2 [F,A,]2 [F,B,]2 | %4
 [F,A,]6 [F,A,]2 | [B,,B,]3 [B,,F,] [B,,F,]2 [D,B,]2 | [E,B,]4 [E,B,]2 [E,E]2 | %7
 [F,D]2 [F,D]2 [F,B,]2 [F,A,]2 | [B,,B,]6 [B,,B,]2 | [F,A,]3 F, F,2 [F,A,]2 | %10
 [B,,B,]4 [B,,F,]2 [D,B,]2 | [C,A,]2 [C,A,]2 [B,,B,]2 [D,B,]2 | [F,A,]6 [F,A,]2 | %13
 [B,,B,]3 [B,,F,] [B,,F,]2 [B,,B,]2 | [E,B,]4 [E,B,]2 [E,B,]2 | [F,B,]2 [F,D]2 [F,C]2 [F,C]2 | %16
 [B,,B,]6 |] %17
V:4
 F,2 | B,3 F, D,2 x2 | x8 | x8 | x8 | x8 | x8 | x8 | x8 | x3 F, F,2 x2 | x8 | x8 | x8 | x8 | x8 | %15
 x8 | x6 |] %17

